lib/assets/Nav-Orders_Active.svg

<svg xmlns="http://www.w3.org/2000/svg" width="17.214" height="21.178" viewBox="0 0 17.214 21.178"><defs><style>.a,.b{fill:none;stroke-linejoin:round;}.b{stroke:#f26882;stroke-width:2px;}.c,.d{stroke:none;}.d{fill:#f26882;}</style></defs><g transform="translate(2 2)"><g class="a" transform="translate(-207.687 -421.528)"><path class="c" d="M208.755,438.706l1.869-.812,1.869.812,1.869-.812,1.869.812,1.869-.812,1.869.812.93-.4V421.528H207.687v16.715Z"/><path class="d" d="M 219.9711151123047 438.7064819335938 L 220.9015960693359 438.3021545410156 L 220.9015960693359 421.5281372070313 L 207.6874847412109 421.5281372070313 L 207.6874847412109 438.2428283691406 L 208.7545166015625 438.7064819335938 L 210.6239471435547 437.8941345214844 L 212.4933776855469 438.7064819335938 L 214.3628082275391 437.8941345214844 L 216.2322540283203 438.7064819335938 L 218.1016845703125 437.8941345214844 L 219.9711151123047 438.7064819335938 M 219.9711151123047 440.7064819335938 C 219.6996765136719 440.7064819335938 219.4282531738281 440.6512451171875 219.1740570068359 440.5408020019531 L 218.1016693115234 440.0747985839844 L 217.0293273925781 440.540771484375 C 216.7751159667969 440.6512451171875 216.5036773681641 440.7064819335938 216.2322387695313 440.7064819335938 C 215.9608154296875 440.7064819335938 215.6893920898438 440.6512451171875 215.4351806640625 440.5408020019531 L 214.3628082275391 440.0747985839844 L 213.2904663085938 440.540771484375 C 213.0362548828125 440.6512451171875 212.7648162841797 440.7064819335938 212.4933776855469 440.7064819335938 C 212.2219390869141 440.7064819335938 211.9505157470703 440.6512451171875 211.6963043212891 440.540771484375 L 210.6239471435547 440.0747985839844 L 209.5516052246094 440.540771484375 C 209.2973937988281 440.6512451171875 209.0259552001953 440.7064819335938 208.7545166015625 440.7064819335938 C 208.4830932617188 440.7064819335938 208.2116851806641 440.6512451171875 207.9574737548828 440.5408020019531 L 206.8904266357422 440.0771484375 C 206.1600036621094 439.759765625 205.6874847412109 439.0392456054688 205.6874847412109 438.2428283691406 L 205.6874847412109 421.5281372070313 C 205.6874847412109 420.423583984375 206.5829162597656 419.5281372070313 207.6874847412109 419.5281372070313 L 220.9015960693359 419.5281372070313 C 222.0061645507813 419.5281372070313 222.9015960693359 420.423583984375 222.9015960693359 421.5281372070313 L 222.9015960693359 438.3021545410156 C 222.9015960693359 439.0985717773438 222.4290924072266 439.819091796875 221.6986541748047 440.136474609375 L 220.7681732177734 440.5408020019531 C 220.5139770507813 440.6512451171875 220.2425384521484 440.7064819335938 219.9711151123047 440.7064819335938 Z"/></g><line class="b" x2="10.44" transform="translate(1.387 2.602)"/><line class="b" x2="10.44" transform="translate(1.387 5.793)"/><line class="b" x2="10.44" transform="translate(1.387 8.988)"/><line class="b" x2="4.681" transform="translate(1.387 12.184)"/></g></svg>

<svg height="21.178" viewBox="0 0 17.214 21.178" width="17.214" xmlns="http://www.w3.org/2000/svg"><g fill="none" stroke-linejoin="round"><g transform="translate(-205.687 -419.528)"><path d="m208.755 438.706 1.869-.812 1.869.812 1.869-.812 1.869.812 1.869-.812 1.869.812.93-.4v-16.778h-13.212v16.715z"/><path d="m219.97111511 438.70648193.93048096-.40432739v-16.77401733h-13.21411133v16.71469116l1.06703186.46365356 1.86943054-.81234741 1.86943055.81234741 1.86943054-.81234741 1.8694458.81234741 1.86943054-.81234741zm0 2c-.2714386 0-.54286194-.05523681-.7970581-.16567993l-1.0723877-.46600342-1.07234192.4659729c-.25421142.11047364-.52565002.16571045-.79708862.16571045-.27142334 0-.54284668-.05523681-.79705811-.16567993l-1.07237243-.46600342-1.07234192.4659729c-.25421143.11047364-.52565003.16571045-.79708862.16571045-.2714386 0-.54286194-.05523681-.79707337-.16571045l-1.07235718-.4659729-1.07234192.4659729c-.25421142.11047364-.52565002.16571045-.79708862.16571045-.27142334 0-.54283142-.05523681-.79704285-.16567993l-1.06704711-.46365356c-.73042298-.31738281-1.2029419-1.03790283-1.2029419-1.83432007v-16.71469116c0-1.10455323.89543152-2 2-2h13.21411133c1.10456848 0 2 .89544677 2 2v16.77401733c0 .79641724-.47250366 1.51693726-1.2029419 1.83432007l-.93048095.40432739c-.25419617.11044312-.52563477.16567993-.79705811.16567993z" fill="#f26882"/></g><g stroke="#f26882" stroke-width="2"><path d="m3.387 4.602h10.44"/><path d="m3.387 7.793h10.44"/><path d="m3.387 10.988h10.44"/><path d="m3.387 14.184h4.681"/></g></g></svg>
